svgs/regular/car-side-bolt.svg

<svg xmlns="http://www.w3.org/2000/svg" viewBox="0 0 640 512"><!--! Font Awesome Pro 6.3.0 by @fontawesome - https://fontawesome.com License - https://fontawesome.com/license (Commercial License) Copyright 2023 Fonticons, Inc. --><path d="M134.2 105.1L99.4 192H128v48H64c-8.8 0-16 7.2-16 16v96H69.5c13.2-37.3 48.7-64 90.5-64s77.4 26.7 90.5 64H389.5c13.2-37.3 48.7-64 90.5-64s77.4 26.7 90.5 64H592V320c0-44.2-35.8-80-80-80H416V192h46.1L384.5 95c-7.6-9.5-19.1-15-31.2-15H171.3c-16.4 0-31.1 10-37.1 25.1zM46.8 194.3l42.8-107C103 53.9 135.3 32 171.3 32H353.2c26.7 0 52 12.2 68.7 33L524 192.6c65.1 6 116 60.8 116 127.4v48c0 17.7-14.3 32-32 32H574.7c-7.6 45.4-47.1 80-94.7 80s-87.1-34.6-94.7-80H254.7c-7.6 45.4-47.1 80-94.7 80s-87.1-34.6-94.7-80H32c-17.7 0-32-14.3-32-32V256c0-29.4 19.8-54.2 46.8-61.7zM434.7 400a48 48 0 1 0 90.5-32 48 48 0 1 0 -90.5 32zM208 384a48 48 0 1 0 -96 0 48 48 0 1 0 96 0zM331.2 100.6c5.3 5.2 6.3 13.3 2.5 19.6L300.3 176H352c7.1 0 13.4 4.7 15.4 11.6s-.8 14.2-6.9 18l-128 80c-6.3 3.9-14.4 3-19.7-2.2s-6.3-13.3-2.5-19.6L243.7 208H192c-7.1 0-13.4-4.7-15.4-11.6s.8-14.2 6.9-18l128-80c6.3-3.9 14.4-3 19.7 2.2z"/></svg>

<svg xmlns="http://www.w3.org/2000/svg" viewBox="0 0 640 512"><!--! Font Awesome Pro 6.2.0 by @fontawesome - https://fontawesome.com License - https://fontawesome.com/license (Commercial License) Copyright 2022 Fonticons, Inc. --><path d="M331.2 100.6C336.5 105.8 337.5 113.9 333.7 120.2L300.3 176H352C359.1 176 365.4 180.7 367.4 187.6C369.4 194.5 366.5 201.8 360.5 205.6L232.5 285.6C226.2 289.5 218.1 288.6 212.8 283.4C207.5 278.2 206.5 270.1 210.3 263.8L243.7 208H192C184.9 208 178.6 203.3 176.6 196.4C174.7 189.6 177.5 182.2 183.5 178.4L311.5 98.43C317.8 94.51 325.9 95.4 331.2 100.6H331.2zM46.82 194.3L89.62 87.32C102.1 53.91 135.3 32 171.3 32H353.2C379.1 32 405.3 44.15 421.1 65.03L523.1 192.6C589.1 198.6 640 253.3 640 320V368C640 385.7 625.7 400 608 400H574.7C567.1 445.4 527.6 480 480 480C432.4 480 392.9 445.4 385.3 400H254.7C247.1 445.4 207.6 480 160 480C112.4 480 72.94 445.4 65.33 400H32C14.33 400 0 385.7 0 368V256C0 226.6 19.82 201.8 46.82 194.3V194.3zM99.45 192H128V240H64C55.16 240 48 247.2 48 256V352H69.46C82.64 314.7 118.2 288 160 288C201.8 288 237.4 314.7 250.5 352H389.5C402.6 314.7 438.2 288 480 288C521.8 288 557.4 314.7 570.5 352H592V320C592 275.8 556.2 240 512 240H416V192H462.1L384.5 95.01C376.9 85.52 365.4 80 353.2 80H171.3C154.1 80 140.3 89.96 134.2 105.1L99.45 192zM434.7 400C441.3 418.6 459.1 432 480 432C500.9 432 518.7 418.6 525.3 400C527 394.1 528 389.6 528 384C528 378.4 527 373 525.3 368C518.7 349.4 500.9 336 480 336C459.1 336 441.3 349.4 434.7 368C432.1 373 432 378.4 432 384C432 389.6 432.1 394.1 434.7 400V400zM205.3 368C198.7 349.4 180.9 336 160 336C139.1 336 121.3 349.4 114.7 368C112.1 373 112 378.4 112 384C112 389.6 112.1 394.1 114.7 400C121.3 418.6 139.1 432 160 432C180.9 432 198.7 418.6 205.3 400C207 394.1 208 389.6 208 384C208 378.4 207 373 205.3 368z"/></svg>
